X:1
T:Title
%%score { ( 1 3 ) | ( 2 4 ) }
L:1/8
M:3/4
K:E
V:1 treble nm="Grand Piano"
V:3 treble 
V:2 bass 
V:4 bass 
V:1
 z2 z2[Q:1/4=100] EF | G2 B2 [B,E][B,DF] | G2 B2 cc | B2 G2 BG |[M:2/4] [DF]4 |[M:1/4] EF | %6
[M:3/4] G2 B2 [B,E][B,DF] | [B,EG]2 [EB]2 [Ec][Ec] | [EB]2 [EG]2 [EG][DF] |[M:2/4] E4 |[M:1/4] BB | %11
[M:3/4] c2 e2 ec | c2 B2 BB | c2 e2 dc |[M:2/4] [DB]4 |[M:1/4] EF |[M:3/4] G2 B2 [B,E][B,DF] | %17
 [B,EG]2 [EB]2 [Ec][Ec] | [EB]2 [B,EG]2 [B,EG][A,DF] |[M:6/4] .[G,E]6 z6 |] %20
V:2
 z2 z2 [E,G,][E,A,E] | [E,B,E]2 [E,G,E]2 G,,B,, | [E,B,E]2 [E,G,E]2 [A,E][A,E] | %3
 [G,B,E]2 [E,B,E]2 [D,B,D][E,B,E] |[M:2/4] [B,,B,]4 |[M:1/4] [E,G,][E,A,E] | %6
[M:3/4] [E,B,E]2 [E,G,E]2 G,,B,, | E,2 [E,G,]2 [A,,A,][C,A,] | [E,G,]2 [E,B,]2 [B,,B,][B,,A,] | %9
[M:2/4] [E,G,]4 |[M:1/4] [E,G,E][E,G,E] |[M:3/4] [A,E]2 [A,CE]2 [A,CE][A,E] | %12
 [E,A,E]2 [E,G,E]2 [E,G,E][E,G,E] | [A,E]2 [G,B,E]2 [F,B,F][F,^A,E] |[M:2/4] B,2 z2 | %15
[M:1/4] [E,G,][E,A,E] |[M:3/4] [E,B,E]2 [E,G,E]2 G,,B,, | E,2 [E,G,]2 [A,,A,][C,A,] | %18
 [E,G,]2 E,2 B,,B,, |[M:6/4] .E,6 z6 |] %20
V:3
 x6 | x6 | x6 | x6 |[M:2/4] x4 |[M:1/4] x2 |[M:3/4] x6 | x6 | x6 |[M:2/4] x4 |[M:1/4] x2 | %11
[M:3/4] x6 | x6 | x6 |[M:2/4] z2 A,2 |[M:1/4] x2 |[M:3/4] x6 | x6 | x6 |[M:6/4] x12 |] %20
V:4
 x6 | x6 | x6 | x6 |[M:2/4] x4 |[M:1/4] x2 |[M:3/4] x6 | x6 | x6 |[M:2/4] x4 |[M:1/4] x2 | %11
[M:3/4] x6 | x6 | x6 |[M:2/4] B,,4 |[M:1/4] x2 |[M:3/4] x6 | x6 | x6 |[M:6/4] x12 |] %20

